assets/icons/standard/catalog.svg

<?xml version="1.0"?><svg xmlns="http://www.w3.org/2000/svg" width="100" height="100" viewBox="0 0 100 100"><path fill="#fff" d="m61.8 29.4l8.9 8.9c2 1.9 2 5.1 0 7l-23.2 23.1v-31.8l7.2-7.2c1.9-2 5.2-2 7.1 0z m18.2 33.1v12.5c0 2.8-2.2 5-5 5h-31.2l22.5-22.5h8.7c2.8 0 5 2.3 5 5z m-60 6.3v-43.8c0-2.8 2.2-5 5-5h12.5c2.8 0 5 2.2 5 5v43.8c0 6.2-5 11.2-11.2 11.2s-11.3-5-11.3-11.2z m11.2 5c2.8 0 5-2.2 5-5s-2.2-5-5-5-5 2.2-5 5 2.3 5 5 5z"></path></svg>

<svg xmlns="http://www.w3.org/2000/svg" x="0px" y="0px"
	 width="100px" height="100px" viewBox="0 0 100 100" enable-background="new 0 0 100 100" xml:space="preserve">
<path fill="#FFFFFF" d="M61.8,29.4l8.9,8.9l0,0c2,1.9,2,5.1,0,7l0,0L47.5,68.4V36.6l7.2-7.2C56.6,27.4,59.9,27.4,61.8,29.4z
	 M80,62.5V75c0,2.8-2.2,5-5,5H43.8l22.5-22.5H75C77.8,57.5,80,59.8,80,62.5z M20,68.8V25c0-2.8,2.2-5,5-5h12.5c2.8,0,5,2.2,5,5v43.8
	c0,6.2-5,11.2-11.2,11.2S20,75,20,68.8z M31.2,73.8c2.8,0,5-2.2,5-5s-2.2-5-5-5s-5,2.2-5,5S28.5,73.8,31.2,73.8z"/>
</svg>
